X:453
T:Madalen Busturingo
Z:Jack Campin, http://www.campin.me.uk/
F:Jack Campin's Nine-Note Tunebook
% last edit 03-02-2013
B:J.M. de Arratia, Cancionero Popular del Pais Vasco
M:3/4
L:1/8
Q:1/4=120
K:F
AA/B/ cc/c/ c2|BB/B/ AA G2 |\
BB/c/ dd/d/ d2|cc/c/ BB A2:|
cc/c/ BB/B/ A2|c2    cA G2 |\
BB/c/ dd/d/ d2|cc    BB A2:|

